X: 1
T:March Down the Aisle
M:C
L:1/8
Q:80
C:Composed by T. Tully
S:March
K:HP
A|
{Gdc}d2{gcd}ce{g}df{g}A3/2{d}A/2|
{e}G{d}A{gef}ec{Gdc}d2{e}Af|
{gf}g3/2f/2{g}ed{gcd}ce{g}A3/2{d}A/2|  !
{e}G{d}A{gef}ed{gcd}c2{g}de|
{Gdc}d2{gcd}ce{g}df{g}A3/2{d}A/2|
{e}G{d}A{gef}ec{Gdc}d2{e}Af|  !
{gf}g3/2f/2{g}ed{gcd}ce{g}A3/2{d}A/2|
{e}G{d}Ad{e}c{Gdc}d3|]
{g}f|  !
a3/2g/2{a}fe{g}df{g}A3/2{d}A/2|
{e}G{e}A{gef}ec{Gdc}d2{e}Af|
{gf}g3/2f/2{g}ed{gcd}ce{g}A3/2{d}A/2|  !
{e}G{d}A{gef}ed{gcd}c2{g}de|
a3/2g/2{a}fe{g}df{g}A3/2{d}A/2|
{e}G{e}A{gef}ec{Gdc}d2{e}Af|  !
{gf}g3/2f/2{g}ed{gcd}ce{g}A3/2{d}A/2|
{e}G{d}Ad{e}c{Gdc}d3|]
